X:46
T:I do what I will with my Swain. JJo.046
S:J.Jones MS,1801,N.Shrops.
N:Repeat marks at final bar, but no repeats indicated earlier.
N:”sy” and “so” written under bars 6 and 7 respectively.
A:N. Shropshire
Z:Neil Brookes 2006
M:3/4
L:1/8
Q:1/4=120
K:C
c>d|e>f eddc|c2gecd|e2d2c>d|e>f e>dcA|A2Gc ed|d2c2c’>g|f2e2g>e|{e}d2GB dg|!
g2e2 a/g/f/e/|d2B2g/f/e/d/|c2A2f>g|d>e B>c{B}AG/A/|G4G2|!
{d}c3BA2|G2G<B ce|e2d2g2|{a}g2 fedc|a2f2e>f|e2d2G2|A<cc2c2|B<dd2d2|!
c<ee2a/g/f/e/|f2f>ga>b|c’2c>de>f|g>ae>f {e}dc/d/|c4|]

